X:307
T:The Dusty Miller
C:Neal, c.1726
%%MIDI gchord czc
S:Colin Hume's website,  colinhume.com  - chords can also be printed below the stave.
Q:1/2=98
M:3/2
R:Triple-time
L:1/8
K:G
P:A
"G"B3c d2B2 A2G2 | "D"F2A4c2 B2A2 | "G"B3c d2B2 A2G2 | "D"D2G4B2 "G"A2G2 :|
P:B
|: "G"B3c d2g2 g3 f/g/ | "Am"a2A4c2 "D"B2A2 | "G"B3c d2g2 "D"f3e/f/ | "G"g2G4B2 A2G2 :|

